X: 38160
T: Sporting Paddy
R: reel
M: 4/4
K: Gmajor
EAAA GABG|EAAA GEDG|EAAA GABd|edge dBAG|
EAAA GABG|EAAA GEDG|EAAA GABd|edge ddde||
geee gede|geeg aaba|geee gedg|edge dGBd|
gafg egde|geeg aaga|bAaA gedg|eage dBAG||

